X:2931
T:Vuggesang
C:anon., words:
O:Denmark
A:Bornholm
R:Lullaby
Z:Transcribed by Frank Nordberg - http://www.musicaviva.com
F:http://abc.musicaviva.com/tunes/denmark/vuggesang-denmark/vuggesang-denmark-1.abc
M:2/4
L:1/8
Q:1/4=100
K:C
"C"G2G2|"C"EFG2|"F"ABcA|"C"G4:|
w:Vis-se-lul--le, Bar--net i S\ovn;
"C"E2E2|"C"C2E2|"C"GGFE|"G"D4|
w:vis-se-lu-le, vis-se, vis-se-lull,
"C"E2E2|"G7"DCDE|"C"C4|"C"C4|]
w:vis-se, vis-se, vis-se-lu-le.
W:
W:Visselulle, Barnet i S\ovn;
W:visselule, visse, visselull,
W:visse, visse, visselule.
W:
W:
W:  From Musica Viva - http://www.musicaviva.com
W:  the Internet center for free sheet music downloads.

